X: 5
T: Kennet's Square Quickstep  v.2
P: piffero secondo b0027
O: Camp Dupont
%R: quickstep, march
F: http://ancients.sudburymuster.org/mus/ssp/pdf/belleisleF.pdf
Z: 2019 John Chambers <jc:trillian.mit.edu>
M: 2/4
L: 1/8
K: D
A |\
FD FA | dd dA | cc cA/G/ | FF DF |\
FD FA | dd dA | GG GE | F2 z :: d |\
ff fe | dA AF | ff fe |
d3 d |\
ff fe | dd AF | ff fe | d3 d |\
ee ec | dd AF | ee ec | f3 d |\
ee ec | dd AF | GG GE| F2 z :|


